X:1
T:Title
%%score 1 { ( 2 4 ) | 3 }
L:1/8
Q:1/4=116
M:4/2
K:F
V:1 treble nm="Akkordion"
V:2 treble nm="Grand Piano"
V:4 treble 
V:3 bass 
V:1
 C2 D2 E2 F2 G2 F2 G2 A2 | c4 c4 c8 | C2 D2 E2 F2 G2 A2 G2 e2 | d4 G4 c8 | %4
w: Henry~Barraclough * * * * * * *||||
 c2 d2 c2 A2 G2 F2 E2 F2 | B4 B4 A8 | _A2 A2 e2 d2 c2 d2 c2 =A2 | G4 C4 F8 |] %8
w: ||||
V:2
 [CA]2 [DA]2 [EA]2 [FA]2 [GB]2 [FA]2 [GB]2 [Ac]2 | %1
 [ca]2 [Bg]2 [Af]2 [Bd]2 [Ac]2 [DEB]2 [CEA]2 [B,EG]2 | %2
 [CA]2 [DA]2 [EA]2 [FA]2 [EG]2 [FA]2 [EG]2 [eg]2 | .d4 =f4 [ce]8 | %4
 [ce]2 [df]2 [ce]2 [Ae]2 [Ge]2 [Fd]2 [E^c]2 [Fd]2 | z8 [A^cea]8 | %6
 [_Ad_a]2 [Ada]2 [Aea]2 [Ada]2 [=Ac=a]2 [Bdb]2 [Aca]2 [FAf]2 | z8 [FAcf]8 |] %8
V:3
 [F,,F,]4 [C,A,]4 [F,C]4 [A,C]4 | [F,A,C]4 [F,A,C]4 [C,C]4 [C,,C,]4 | %2
 [F,,F,]4 [C,A,]4 [C,,C,]4 [C,,C,]4 | [D,,D,]4 [G,D]4 [C,,C,]4 z4 | %4
 [F,,F,]4 [F,_E]4 [B,,,B,,]4 [B,,B,]4 | [B,,B,]4 [B,,,B,,]4 [A,,,A,,]4 [A,^C]4 | %6
 [=B,,,=B,,]4 [B,D]4 [C,,C,]4 [F,A,C]4 | [G,,,G,,]4 [C,,C,]4 [F,,,F,,]4 [F,A,]4 |] %8
V:4
 x16 | x16 | x16 | ^f2- [Af]2 =B2 G2 z4 [G,E]4 | x16 | [Fdf]4 [Gdeg]4 z4 E4 | x16 | %7
 [G=Bdf]4 [G_Bce]4 z4 C4 |] %8

